Catalina-light/actions/16/kdenlive-hide-video.svg

<svg width="16" height="16" viewBox="0 0 16 16" xmlns="http://www.w3.org/2000/svg">
<defs>
<style id="current-color-scheme" type="text/css">.ColorScheme-Text { color:#5c616c; } .ColorScheme-Highlight { color:#5294e2; }</style>
</defs>
<path class="ColorScheme-Highlight" d="m2 3c-1 0-1 1-1 1v8c0 1 1 1 1 1h9s1 0 1-1v-8s0-1-1-1h-9zm10 5 4 4v-7.5l-4 3.5z" fill="currentColor"/>
</svg>

<svg xmlns="http://www.w3.org/2000/svg" width="16" height="16" viewBox="0 0 16 16">
 <defs>
  <style id="current-color-scheme" type="text/css">
   .ColorScheme-Text { color:#5c616c; } .ColorScheme-Highlight { color:#5294e2; }
  </style>
 </defs>
 <path style="fill:currentColor" class="ColorScheme-Highlight" d="M 2 3 C 1 3 1 4 1 4 L 1 12 C 1 13 2 13 2 13 L 11 13 C 11 13 12 13 12 12 L 12 8 L 12 4 C 12 4 12 3 11 3 L 2 3 z M 12 8 L 16 12 L 16 4.5 L 12 8 z"/>
</svg>
